assets/business-color/BusinessColor24.svg

<svg xmlns="http://www.w3.org/2000/svg" id="Layer_1" x="0" y="0" version="1.1" viewBox="0 0 256 256" xml:space="preserve"><style>.st1{fill:#fff}.st2{fill:#48386a}.st3{fill:#ffffed}.st4{fill:#9feaff}.st5{fill:#febe7f}.st6{fill:#ff8584}</style><path fill="#dbfdff" d="M194.7 97c-5.4 0-10.6.9-15.5 2.4-9.1-9.1-21.8-14.8-35.7-14.8-8.5 0-16.6 2.1-23.7 5.9 3.3-6.7 5.2-14.3 5.2-22.3 0-27.9-22.6-50.5-50.5-50.5S24 40.3 24 68.2c0 5.5.9 10.8 2.5 15.8-4.8 7.7-7.6 16.9-7.6 26.7 0 27.9 22.6 50.5 50.5 50.5 9.9 0 19.1-2.9 26.9-7.8 5.1 13.2 15.5 23.6 28.7 28.8-2.1 5.5-3.2 11.5-3.2 17.8 0 27.9 22.6 50.5 50.5 50.5s50.5-22.6 50.5-50.5c0-3.4-.3-6.7-1-9.9 14.1-9 23.4-24.7 23.4-42.6 0-27.9-22.6-50.5-50.5-50.5z"/><path d="M139.1 227.5h31.3c2.8 0 5.2-2.3 5.2-5.2V113.7c0-2.8-2.3-5.2-5.2-5.2H9.9c-2.8 0-5.2 2.3-5.2 5.2v108.6c0 2.8 2.3 5.2 5.2 5.2h129.2z" class="st1"/><path d="M252.7 91.1v47.2c0 2.8-2.3 5.2-5.2 5.2h-72v-29.7c0-2.8-2.3-5.2-5.2-5.2H81.9v-79c0-2.8 2.3-5.2 5.2-5.2h160.5c2.8 0 5.2 2.3 5.2 5.2v61.5z" class="st1"/><path d="M247.5 144.4h-72c-.6 0-1-.4-1-1v-29.7c0-2.3-1.9-4.2-4.2-4.2H81.9c-.6 0-1-.4-1-1V29.6c0-3.4 2.8-6.2 6.2-6.2h160.5c3.4 0 6.2 2.8 6.2 6.2V72c0 .6-.4 1-1 1s-1-.4-1-1V29.6c0-2.3-1.9-4.2-4.2-4.2H87c-2.3 0-4.2 1.9-4.2 4.2v77.9h87.5c3.4 0 6.2 2.8 6.2 6.2v28.7h71c2.3 0 4.2-1.9 4.2-4.2V91.1c0-.6.4-1 1-1s1 .4 1 1v47.2c0 3.4-2.8 6.1-6.2 6.1z" class="st2"/><path d="M162.3 87.3l-32.1 21.3H90.1V32.7L157.9 84z" class="st3"/><path d="M130.2 109.1H90.1c-.3 0-.5-.2-.5-.5V32.7c0-.2.1-.4.3-.4.2-.1.4-.1.5 0l67.7 51.2 4.4 3.3c.1.1.2.3.2.4s-.1.3-.2.4l-32 21.4c-.1 0-.2.1-.3.1zm-39.6-1H130l31.4-20.8-3.8-2.9-67-50.7v74.4z" class="st2"/><path d="M180.5 135.2v-21.4c0-2.8-2.3-5.2-5.2-5.2h-40.2l32.1-21.3 5 3.8 5-3.8 72.2 47.9h-68.9z" class="st4"/><path d="M142.6 231.5h31.3c2.8 0 5.2-2.3 5.2-5.2V117.7c0-2.8-2.3-5.2-5.2-5.2H13.4c-2.8 0-5.2 2.3-5.2 5.2v108.6c0 2.8 2.3 5.2 5.2 5.2h129.2z" class="st5"/><path d="M167.3 132v87.3H13V116.8h154.3v10.3z" class="st1"/><path d="M167.3 219.8H13c-.3 0-.5-.2-.5-.5V116.8c0-.3.2-.5.5-.5h154.3c.3 0 .5.2.5.5v10.3c0 .3-.2.5-.5.5s-.5-.2-.5-.5v-9.8H13.5v101.4h153.3V132c0-.3.2-.5.5-.5s.5.2.5.5v87.3c0 .2-.2.5-.5.5z" class="st2"/><path d="M170.4 228.5h-31.3c-.6 0-1-.4-1-1s.4-1 1-1h31.3c2.3 0 4.2-1.9 4.2-4.2V113.7c0-2.3-1.9-4.2-4.2-4.2H9.9c-2.3 0-4.2 1.9-4.2 4.2v108.6c0 2.3 1.9 4.2 4.2 4.2h123.5c.6 0 1 .4 1 1s-.4 1-1 1H9.9c-3.4 0-6.2-2.8-6.2-6.2V113.7c0-3.4 2.8-6.2 6.2-6.2h160.5c3.4 0 6.2 2.8 6.2 6.2v108.6c-.1 3.4-2.8 6.2-6.2 6.2z" class="st2"/><path d="M49.2 159.7H23.3v-32.6h55.3v32.6h-20z" class="st1"/><path d="M78.6 160.7h-20c-.6 0-1-.4-1-1s.4-1 1-1h19v-30.6H24.3v30.6h24.9c.6 0 1 .4 1 1s-.4 1-1 1H23.3c-.6 0-1-.4-1-1v-32.6c0-.6.4-1 1-1h55.3c.6 0 1 .4 1 1v32.6c0 .6-.4 1-1 1z" class="st2"/><path d="M54.7 160.7h-1.1c-.6 0-1-.4-1-1s.4-1 1-1h1.1c.6 0 1 .4 1 1s-.4 1-1 1z" class="st2"/><path d="M40.8 121.9h24.3V169H40.8z" class="st6" transform="rotate(90 52.934 145.423)"/><path d="M74.5 156.1H27.4c-.3 0-.5-.2-.5-.5v-24.3c0-.3.2-.5.5-.5h47.1c.3 0 .5.2.5.5v24.3c0 .3-.2.5-.5.5zm-46.6-1H74v-23.3H27.9v23.3zM157 178.3h-27c-.3 0-.5-.2-.5-.5s.2-.5.5-.5h27c.3 0 .5.2.5.5s-.2.5-.5.5zM126 178.3H96.1c-.3 0-.5-.2-.5-.5s.2-.5.5-.5H126c.3 0 .5.2.5.5s-.2.5-.5.5zM146.7 188.3H96.1c-.3 0-.5-.2-.5-.5s.2-.5.5-.5h50.5c.3 0 .5.2.5.5s-.2.5-.4.5zM136.4 198.4H96.1c-.3 0-.5-.2-.5-.5s.2-.5.5-.5h40.2c.3 0 .5.2.5.5s-.2.5-.4.5zM126 208.4H96.1c-.3 0-.5-.2-.5-.5s.2-.5.5-.5H126c.3 0 .5.2.5.5s-.2.5-.5.5zM252.7 87.3c-.6 0-1-.4-1-1v-4.8c0-.6.4-1 1-1s1 .4 1 1v4.8c0 .6-.4 1-1 1z" class="st2"/><path d="M151.9 32.7h97.6L181.7 84l-4.4 3.3-5 3.8-5-3.8-4.4-3.3-67.8-51.3h42.4z" class="st4"/><g><path d="M244.5 135.7h-68.9c-.3 0-.5-.2-.5-.5v-21.4c0-2.6-2.1-4.7-4.7-4.7h-40.2c-.2 0-.4-.1-.5-.4-.1-.2 0-.4.2-.6L162 86.9c.2-.1.4-.1.6 0l4.7 3.6 4.7-3.6c.2-.1.4-.1.6 0l72.2 47.9c.2.1.3.3.2.6-.1.1-.3.3-.5.3zm-68.5-1h66.8l-70.5-46.8-4.7 3.6c-.2.1-.4.1-.6 0l-4.7-3.6-30.4 20.2h38.5c3.1 0 5.7 2.5 5.7 5.7v20.9z" class="st2"/></g><g><path d="M143.6 33.2h-3.5c-.3 0-.5-.2-.5-.5s.2-.5.5-.5h3.5c.3 0 .5.2.5.5s-.2.5-.5.5z" class="st2"/></g><g><path d="M244.5 32.7v102.5l-72.2-47.9 4.4-3.3z" class="st3"/><path d="M244.5 135.7c-.1 0-.2 0-.3-.1L172 87.7c-.1-.1-.2-.2-.2-.4s.1-.3.2-.4l72.2-54.5c.2-.1.4-.1.5 0 .2.1.3.3.3.4v102.4c0 .2-.1.4-.3.4-.1.1-.2.1-.2.1zm-71.3-48.4l70.8 47V33.7l-70.8 53.6z" class="st2"/></g><g><path d="M167.3 91.6c-.1 0-.2 0-.3-.1L89.8 33.1c-.2-.1-.2-.4-.2-.6s.3-.3.5-.3h42.3c.3 0 .5.2.5.5s-.2.5-.5.5H91.6l75.7 57.2L243 33.2h-96.1c-.3 0-.5-.2-.5-.5s.2-.5.5-.5h97.6c.2 0 .4.1.5.3.1.2 0 .4-.2.6l-77.2 58.3c-.1.1-.2.2-.3.2z" class="st2"/></g><g><path d="M66.1 84.5c-1.6 0-3-1.3-3-3s1.3-3 3-3 3 1.3 3 3-1.3 3-3 3zm0-5c-1.1 0-2 .9-2 2s.9 2 2 2 2-.9 2-2-.9-2-2-2z" class="st6"/></g><g><path d="M34.1 97c-.1 0-.3-.1-.4-.1-.1-.1-.2-.3-.1-.5l.8-2.6-.8-2.6c-.1-.2 0-.4.1-.5.1-.1.3-.2.5-.1l2.6.8 2.6-.8c.2-.1.4 0 .5.1.1.1.1.3.1.5l-.8 2.6.8 2.6c.1.2 0 .4-.1.5-.2.1-.4.1-.5.1l-1-.3c-.3-.1-.4-.4-.3-.6.1-.3.4-.4.6-.3h.1l-.5-1.8v-.3l.5-1.8-1.8.5h-.3l-1.8-.5.5 1.8v.3l-.5 1.8 1.8-.5c.3-.1.5.1.6.3.1.3-.1.5-.3.6l-2.8.8h-.1z" class="st2"/></g><g><path d="M189.1 178c-.1 0-.3-.1-.4-.1-.1-.1-.2-.3-.1-.5l.8-2.6-.8-2.6c-.1-.2 0-.4.1-.5s.3-.2.5-.1l2.6.8 2.6-.8c.2-.1.4 0 .5.1s.2.3.1.5l-.8 2.6.8 2.6c.1.2 0 .4-.1.5-.1.1-.3.2-.5.1l-1-.3c-.3-.1-.4-.4-.3-.6.1-.3.4-.4.6-.3h.1l-.5-1.8v-.3l.5-1.8-1.8.5h-.3l-1.8-.5.5 1.8v.3l-.5 1.8 1.8-.5c.3-.1.5.1.6.3.1.3-.1.5-.3.6l-2.7.8h-.2z" class="st5"/></g><g><path d="M59.1 43.2c-.3 0-.5-.2-.5-.5v-2.4c0-.3.2-.5.5-.5s.5.2.5.5v2.4c0 .3-.3.5-.5.5zM59.1 49.1c-.3 0-.5-.2-.5-.5v-2.4c0-.3.2-.5.5-.5s.5.2.5.5v2.4c0 .2-.3.5-.5.5zM63.2 44.9h-2.4c-.3 0-.5-.2-.5-.5s.2-.5.5-.5h2.4c.3 0 .5.2.5.5s-.2.5-.5.5zM57.4 44.9H55c-.3 0-.5-.2-.5-.5s.2-.5.5-.5h2.4c.3 0 .5.2.5.5s-.3.5-.5.5z" class="st5"/></g><g><path d="M190.1 230.3c-.3 0-.5-.2-.5-.5v-2.4c0-.3.2-.5.5-.5s.5.2.5.5v2.4c0 .3-.2.5-.5.5zM190.1 236.2c-.3 0-.5-.2-.5-.5v-2.4c0-.3.2-.5.5-.5s.5.2.5.5v2.4c0 .2-.2.5-.5.5zM194.2 232h-2.4c-.3 0-.5-.2-.5-.5s.2-.5.5-.5h2.4c.3 0 .5.2.5.5s-.2.5-.5.5zM188.4 232H186c-.3 0-.5-.2-.5-.5s.2-.5.5-.5h2.4c.3 0 .5.2.5.5s-.3.5-.5.5z" class="st4"/></g><g><path d="M204.3 206.6c-1.6 0-3-1.3-3-3s1.3-3 3-3 3 1.3 3 3-1.3 3-3 3zm0-4.9c-1.1 0-2 .9-2 2s.9 2 2 2 2-.9 2-2-.9-2-2-2z" class="st2"/></g><g><path d="M218 156.4c-.3 0-.5-.2-.5-.5v-2.4c0-.3.2-.5.5-.5s.5.2.5.5v2.4c0 .2-.2.5-.5.5zM218 162.2c-.3 0-.5-.2-.5-.5v-2.4c0-.3.2-.5.5-.5s.5.2.5.5v2.4c0 .3-.2.5-.5.5zM222.1 158.1h-2.4c-.3 0-.5-.2-.5-.5s.2-.5.5-.5h2.4c.3 0 .5.2.5.5s-.2.5-.5.5zM216.3 158.1h-2.4c-.3 0-.5-.2-.5-.5s.2-.5.5-.5h2.4c.3 0 .5.2.5.5s-.2.5-.5.5z" class="st6"/></g></svg>

<svg xmlns="http://www.w3.org/2000/svg" id="Layer_1" x="0" y="0" enable-background="new 0 0 256 256" version="1.1" viewBox="0 0 256 256" xml:space="preserve"><style>.st0{fill:#DBFDFF;}
	.st1{fill:#FFFFFF;}
	.st2{fill:#48386A;}
	.st3{fill:#FFFFED;}
	.st4{fill:#9FEAFF;}
	.st5{fill:#FEBE7F;}
	.st6{fill:#FF8584;}</style><path d="M194.7 97c-5.4 0-10.6.9-15.5 2.4-9.1-9.1-21.8-14.8-35.7-14.8-8.5 0-16.6 2.1-23.7 5.9 3.3-6.7 5.2-14.3 5.2-22.3 0-27.9-22.6-50.5-50.5-50.5S24 40.3 24 68.2c0 5.5.9 10.8 2.5 15.8-4.8 7.7-7.6 16.9-7.6 26.7 0 27.9 22.6 50.5 50.5 50.5 9.9 0 19.1-2.9 26.9-7.8 5.1 13.2 15.5 23.6 28.7 28.8-2.1 5.5-3.2 11.5-3.2 17.8 0 27.9 22.6 50.5 50.5 50.5s50.5-22.6 50.5-50.5c0-3.4-.3-6.7-1-9.9 14.1-9 23.4-24.7 23.4-42.6 0-27.9-22.6-50.5-50.5-50.5z" class="st0"/><path d="M139.1 227.5h31.3c2.8 0 5.2-2.3 5.2-5.2V113.7c0-2.8-2.3-5.2-5.2-5.2H9.9c-2.8 0-5.2 2.3-5.2 5.2v108.6c0 2.8 2.3 5.2 5.2 5.2h129.2z" class="st1"/><path d="M252.7 91.1v47.2c0 2.8-2.3 5.2-5.2 5.2h-72v-29.7c0-2.8-2.3-5.2-5.2-5.2H81.9v-79c0-2.8 2.3-5.2 5.2-5.2h160.5c2.8 0 5.2 2.3 5.2 5.2v61.5z" class="st1"/><path d="M247.5 144.4h-72c-.6 0-1-.4-1-1v-29.7c0-2.3-1.9-4.2-4.2-4.2H81.9c-.6 0-1-.4-1-1V29.6c0-3.4 2.8-6.2 6.2-6.2h160.5c3.4 0 6.2 2.8 6.2 6.2V72c0 .6-.4 1-1 1s-1-.4-1-1V29.6c0-2.3-1.9-4.2-4.2-4.2H87c-2.3 0-4.2 1.9-4.2 4.2v77.9h87.5c3.4 0 6.2 2.8 6.2 6.2v28.7h71c2.3 0 4.2-1.9 4.2-4.2V91.1c0-.6.4-1 1-1s1 .4 1 1v47.2c0 3.4-2.8 6.1-6.2 6.1z" class="st2"/><path d="M162.3 87.3 130.2 108.6 90.1 108.6 90.1 32.7 157.9 84z" class="st3"/><path d="M130.2 109.1H90.1c-.3 0-.5-.2-.5-.5V32.7c0-.2.1-.4.3-.4.2-.1.4-.1.5 0l67.7 51.2 4.4 3.3c.1.1.2.3.2.4s-.1.3-.2.4l-32 21.4c-.1 0-.2.1-.3.1zm-39.6-1H130l31.4-20.8-3.8-2.9-67-50.7v74.4z" class="st2"/><path d="M180.5 135.2v-21.4c0-2.8-2.3-5.2-5.2-5.2h-40.2l32.1-21.3 5 3.8 5-3.8 72.2 47.9h-68.9z" class="st4"/><path d="M142.6 231.5h31.3c2.8 0 5.2-2.3 5.2-5.2V117.7c0-2.8-2.3-5.2-5.2-5.2H13.4c-2.8 0-5.2 2.3-5.2 5.2v108.6c0 2.8 2.3 5.2 5.2 5.2h129.2z" class="st5"/><path d="M167.3 132 167.3 219.3 13 219.3 13 116.8 167.3 116.8 167.3 127.1z" class="st1"/><path d="M167.3 219.8H13c-.3 0-.5-.2-.5-.5V116.8c0-.3.2-.5.5-.5h154.3c.3 0 .5.2.5.5v10.3c0 .3-.2.5-.5.5s-.5-.2-.5-.5v-9.8H13.5v101.4h153.3V132c0-.3.2-.5.5-.5s.5.2.5.5v87.3c0 .2-.2.5-.5.5z" class="st2"/><path d="M170.4 228.5h-31.3c-.6 0-1-.4-1-1s.4-1 1-1h31.3c2.3 0 4.2-1.9 4.2-4.2V113.7c0-2.3-1.9-4.2-4.2-4.2H9.9c-2.3 0-4.2 1.9-4.2 4.2v108.6c0 2.3 1.9 4.2 4.2 4.2h123.5c.6 0 1 .4 1 1s-.4 1-1 1H9.9c-3.4 0-6.2-2.8-6.2-6.2V113.7c0-3.4 2.8-6.2 6.2-6.2h160.5c3.4 0 6.2 2.8 6.2 6.2v108.6c-.1 3.4-2.8 6.2-6.2 6.2z" class="st2"/><path d="M49.2 159.7 23.3 159.7 23.3 127.1 78.6 127.1 78.6 159.7 58.6 159.7z" class="st1"/><path d="M78.6 160.7h-20c-.6 0-1-.4-1-1s.4-1 1-1h19v-30.6H24.3v30.6h24.9c.6 0 1 .4 1 1s-.4 1-1 1H23.3c-.6 0-1-.4-1-1v-32.6c0-.6.4-1 1-1h55.3c.6 0 1 .4 1 1v32.6c0 .6-.4 1-1 1z" class="st2"/><path d="M54.7 160.7h-1.1c-.6 0-1-.4-1-1s.4-1 1-1h1.1c.6 0 1 .4 1 1s-.4 1-1 1z" class="st2"/><path d="M40.8 121.9H65.1V169H40.8z" class="st6" transform="rotate(90 52.934 145.423)"/><path d="M74.5 156.1H27.4c-.3 0-.5-.2-.5-.5v-24.3c0-.3.2-.5.5-.5h47.1c.3 0 .5.2.5.5v24.3c0 .3-.2.5-.5.5zm-46.6-1H74v-23.3H27.9v23.3zM157 178.3h-27c-.3 0-.5-.2-.5-.5s.2-.5.5-.5h27c.3 0 .5.2.5.5s-.2.5-.5.5zM126 178.3H96.1c-.3 0-.5-.2-.5-.5s.2-.5.5-.5H126c.3 0 .5.2.5.5s-.2.5-.5.5zM146.7 188.3H96.1c-.3 0-.5-.2-.5-.5s.2-.5.5-.5h50.5c.3 0 .5.2.5.5s-.2.5-.4.5zM136.4 198.4H96.1c-.3 0-.5-.2-.5-.5s.2-.5.5-.5h40.2c.3 0 .5.2.5.5s-.2.5-.4.5zM126 208.4H96.1c-.3 0-.5-.2-.5-.5s.2-.5.5-.5H126c.3 0 .5.2.5.5s-.2.5-.5.5zM252.7 87.3c-.6 0-1-.4-1-1v-4.8c0-.6.4-1 1-1s1 .4 1 1v4.8c0 .6-.4 1-1 1z" class="st2"/><path d="M151.9 32.7 249.5 32.7 181.7 84 177.3 87.3 172.3 91.1 167.3 87.3 162.9 84 95.1 32.7 137.5 32.7z" class="st4"/><g><path d="M244.5 135.7h-68.9c-.3 0-.5-.2-.5-.5v-21.4c0-2.6-2.1-4.7-4.7-4.7h-40.2c-.2 0-.4-.1-.5-.4-.1-.2 0-.4.2-.6L162 86.9c.2-.1.4-.1.6 0l4.7 3.6 4.7-3.6c.2-.1.4-.1.6 0l72.2 47.9c.2.1.3.3.2.6-.1.1-.3.3-.5.3zm-68.5-1h66.8l-70.5-46.8-4.7 3.6c-.2.1-.4.1-.6 0l-4.7-3.6-30.4 20.2h38.5c3.1 0 5.7 2.5 5.7 5.7v20.9z" class="st2"/></g><g><path d="M143.6 33.2h-3.5c-.3 0-.5-.2-.5-.5s.2-.5.5-.5h3.5c.3 0 .5.2.5.5s-.2.5-.5.5z" class="st2"/></g><g><path d="M244.5 32.7 244.5 135.2 172.3 87.3 176.7 84z" class="st3"/><path d="M244.5 135.7c-.1 0-.2 0-.3-.1L172 87.7c-.1-.1-.2-.2-.2-.4s.1-.3.2-.4l72.2-54.5c.2-.1.4-.1.5 0 .2.1.3.3.3.4v102.4c0 .2-.1.4-.3.4-.1.1-.2.1-.2.1zm-71.3-48.4 70.8 47V33.7l-70.8 53.6z" class="st2"/></g><g><path d="M167.3 91.6c-.1 0-.2 0-.3-.1L89.8 33.1c-.2-.1-.2-.4-.2-.6s.3-.3.5-.3h42.3c.3 0 .5.2.5.5s-.2.5-.5.5H91.6l75.7 57.2L243 33.2h-96.1c-.3 0-.5-.2-.5-.5s.2-.5.5-.5h97.6c.2 0 .4.1.5.3.1.2 0 .4-.2.6l-77.2 58.3c-.1.1-.2.2-.3.2z" class="st2"/></g><g><path d="M66.1 84.5c-1.6 0-3-1.3-3-3s1.3-3 3-3 3 1.3 3 3-1.3 3-3 3zm0-5c-1.1 0-2 .9-2 2s.9 2 2 2 2-.9 2-2-.9-2-2-2z" class="st6"/></g><g><path d="M34.1 97c-.1 0-.3-.1-.4-.1-.1-.1-.2-.3-.1-.5l.8-2.6-.8-2.6c-.1-.2 0-.4.1-.5.1-.1.3-.2.5-.1l2.6.8 2.6-.8c.2-.1.4 0 .5.1.1.1.1.3.1.5l-.8 2.6.8 2.6c.1.2 0 .4-.1.5-.2.1-.4.1-.5.1l-1-.3c-.3-.1-.4-.4-.3-.6.1-.3.4-.4.6-.3h.1l-.5-1.8v-.3l.5-1.8-1.8.5h-.3l-1.8-.5.5 1.8v.3l-.5 1.8 1.8-.5c.3-.1.5.1.6.3.1.3-.1.5-.3.6l-2.8.8h-.1z" class="st2"/></g><g><path d="M189.1 178c-.1 0-.3-.1-.4-.1-.1-.1-.2-.3-.1-.5l.8-2.6-.8-2.6c-.1-.2 0-.4.1-.5s.3-.2.5-.1l2.6.8 2.6-.8c.2-.1.4 0 .5.1s.2.3.1.5l-.8 2.6.8 2.6c.1.2 0 .4-.1.5-.1.1-.3.2-.5.1l-1-.3c-.3-.1-.4-.4-.3-.6.1-.3.4-.4.6-.3h.1l-.5-1.8v-.3l.5-1.8-1.8.5h-.3l-1.8-.5.5 1.8v.3l-.5 1.8 1.8-.5c.3-.1.5.1.6.3.1.3-.1.5-.3.6l-2.7.8h-.2z" class="st5"/></g><g><path d="M59.1 43.2c-.3 0-.5-.2-.5-.5v-2.4c0-.3.2-.5.5-.5s.5.2.5.5v2.4c0 .3-.3.5-.5.5zM59.1 49.1c-.3 0-.5-.2-.5-.5v-2.4c0-.3.2-.5.5-.5s.5.2.5.5v2.4c0 .2-.3.5-.5.5zM63.2 44.9h-2.4c-.3 0-.5-.2-.5-.5s.2-.5.5-.5h2.4c.3 0 .5.2.5.5s-.2.5-.5.5zM57.4 44.9H55c-.3 0-.5-.2-.5-.5s.2-.5.5-.5h2.4c.3 0 .5.2.5.5s-.3.5-.5.5z" class="st5"/></g><g><path d="M190.1 230.3c-.3 0-.5-.2-.5-.5v-2.4c0-.3.2-.5.5-.5s.5.2.5.5v2.4c0 .3-.2.5-.5.5zM190.1 236.2c-.3 0-.5-.2-.5-.5v-2.4c0-.3.2-.5.5-.5s.5.2.5.5v2.4c0 .2-.2.5-.5.5zM194.2 232h-2.4c-.3 0-.5-.2-.5-.5s.2-.5.5-.5h2.4c.3 0 .5.2.5.5s-.2.5-.5.5zM188.4 232H186c-.3 0-.5-.2-.5-.5s.2-.5.5-.5h2.4c.3 0 .5.2.5.5s-.3.5-.5.5z" class="st4"/></g><g><path d="M204.3 206.6c-1.6 0-3-1.3-3-3s1.3-3 3-3 3 1.3 3 3-1.3 3-3 3zm0-4.9c-1.1 0-2 .9-2 2s.9 2 2 2 2-.9 2-2-.9-2-2-2z" class="st2"/></g><g><path d="M218 156.4c-.3 0-.5-.2-.5-.5v-2.4c0-.3.2-.5.5-.5s.5.2.5.5v2.4c0 .2-.2.5-.5.5zM218 162.2c-.3 0-.5-.2-.5-.5v-2.4c0-.3.2-.5.5-.5s.5.2.5.5v2.4c0 .3-.2.5-.5.5zM222.1 158.1h-2.4c-.3 0-.5-.2-.5-.5s.2-.5.5-.5h2.4c.3 0 .5.2.5.5s-.2.5-.5.5zM216.3 158.1h-2.4c-.3 0-.5-.2-.5-.5s.2-.5.5-.5h2.4c.3 0 .5.2.5.5s-.2.5-.5.5z" class="st6"/></g></svg>
